catenergy/img/advantage-leaf.svg

<svg width="26pt" height="29pt" viewBox="0 0 26 29" xmlns="http://www.w3.org/2000/svg"><path fill="#fcfcfc" d="M20.6 0H26v1.43c-4.52 4.65-3.2 11.42-4.56 17.18-2.05 6.24-9.43 7.81-15.21 7.15-.08-.63-.23-1.89-.3-2.52 4.69.17 10.97-.22 12.98-5.32 1.22-5.05.57-10.46 2.73-15.31-6.05.81-12.95 1.89-16.98 6.97-2.7 3.09-1.95 7.44-1.87 11.18 2.41-4.39 5.52-8.48 9.64-11.4 1.12-1.33 3.31 1.34 1.39 2.15C8.13 15.89 4.56 22.26 2.38 29H.48c.05-2.37 1.2-4.72.29-7.05-1.14-4.7-1.32-10.28 1.97-14.19C6.98 2.36 14.18.9 20.6 0z"/></svg>

<?xml version="1.0" encoding="UTF-8" ?>
<!DOCTYPE svg PUBLIC "-//W3C//DTD SVG 1.1//EN" "http://www.w3.org/Graphics/SVG/1.1/DTD/svg11.dtd">
<svg width="26pt" height="29pt" viewBox="0 0 26 29" version="1.1" xmlns="http://www.w3.org/2000/svg">
<g id="#fcfcfcfc">
<path fill="#fcfcfc" opacity="1.00" d=" M 20.60 0.00 L 26.00 0.00 L 26.00 1.43 C 21.48 6.08 22.80 12.85 21.44 18.61 C 19.39 24.85 12.01 26.42 6.23 25.76 C 6.15 25.13 6.00 23.87 5.93 23.24 C 10.62 23.41 16.90 23.02 18.91 17.92 C 20.13 12.87 19.48 7.46 21.64 2.61 C 15.59 3.42 8.69 4.50 4.66 9.58 C 1.96 12.67 2.71 17.02 2.79 20.76 C 5.20 16.37 8.31 12.28 12.43 9.36 C 13.55 8.03 15.74 10.70 13.82 11.51 C 8.13 15.89 4.56 22.26 2.38 29.00 L 0.48 29.00 C 0.53 26.63 1.68 24.28 0.77 21.95 C -0.37 17.25 -0.55 11.67 2.74 7.76 C 6.98 2.36 14.18 0.90 20.60 0.00 Z" />
</g>
</svg>
